ui/StatusQ/src/assets/img/icons/previous.svg

<svg fill="none" height="24" viewBox="0 0 24 24" width="24" xmlns="http://www.w3.org/2000/svg"><path clip-rule="evenodd" d="m14.5332 5.46967c-.2929-.29289-.7678-.29289-1.0607 0l-5.64642 5.64643c-.48816.4882-.48816 1.2796 0 1.7678l5.64642 5.6464c.2929.2929.7678.2929 1.0607 0s.2929-.7677 0-1.0606l-5.11613-5.1161c-.19526-.1953-.19526-.5119 0-.7072l5.11613-5.11607c.2929-.29289.2929-.76777 0-1.06066z" fill="#000" fill-rule="evenodd"/></svg>

<svg width="24" height="24" viewBox="0 0 24 24" fill="none" xmlns="http://www.w3.org/2000/svg">
<path fill-rule="evenodd" clip-rule="evenodd" d="M14.5332 5.46967C14.2403 5.17678 13.7654 5.17678 13.4725 5.46967L7.82608 11.1161C7.33792 11.6043 7.33792 12.3957 7.82608 12.8839L13.4725 18.5303C13.7654 18.8232 14.2403 18.8232 14.5332 18.5303C14.8261 18.2374 14.8261 17.7626 14.5332 17.4697L9.41707 12.3536C9.22181 12.1583 9.22181 11.8417 9.41707 11.6464L14.5332 6.53033C14.8261 6.23744 14.8261 5.76256 14.5332 5.46967Z" fill="black"/>
</svg>
